X:1
T:Treue Liebe
T:Johannes Dürrner
T:Treue Liebe
T:CPDL - Creative Commons Attribution Non Commercial 3.0
T:CPDL - Creative Commons Attribution Non Commercial 3.0
T:CPDL - Creative Commons Attribution Non Commercial 3.0
T:CPDL - Creative Commons Attribution Non Commercial 3.0
C:Johannes Dürrner
Z:CPDL - Creative Commons Attribution Non Commercial 3.0
%%score [ 1 2 3 4 ]
L:1/8
Q:1/4=90
M:3/4
K:E
V:1 treble-8 nm="Tenor\n1"
V:2 treble-8 nm="Tenor\n2"
V:3 bass nm="Bass\n1"
V:4 bass nm="Bass\n2"
V:1
!p!"^Andante con moto" GA B | !>!^B>c!<(! cc d!<)!f |!>(! f>!>)!e e!<(!e f^^f!<)! |!>(! g4!>)! f2 | %4
w: 1.~Wie ist es|mög- lich dann, dass ich dich|las- sen kann, dass ich dich|las- sen|
w: 2.~Blau ist ein|Blü- me- lein, das heißt Ver-|giß- nicht- mein; das heißt Ver-|giss- nicht-|
 e4 z2 | z B!<(! Bd e!<)!f |!>(! (f2 B2)!>)! z2 | z!<(! F Bd e!<)!f |!>(! f4!>)!!p! B2 | %9
w: kann,|hab' dich von Her- zen|lieb, _|das glau- be, glau- be|mir. Du|
w: mein;|dies Blüm- lein leg ans|Herz _|und denk, und denk an|mich! Stirbt|
 B>B!<(! B2 =d2!<)! | =d4 |!f! =g2 | =g3 g ge |!>(! =d4!>)! =c2 | B>!<(!B e2!<)! f2 | %15
w: hast das Her- ze|mein|so|ganz ge- nom- men|ein, so|ganz ge- nom- men|
w: Blum' und Hoff- nung|gleich,|sind|wir an Lie- be|reich, sind|wir an Lie- be|
!>(! !fermata!f3!>)! | z3 | z!p! g fe dB | e4 z2 | z B"^cresc." eg !>!gf | (!>!f2 e)!f!e ee | %21
w: ein,||dass ich kein and'- re|lieb,|dass ich kein and'- re|lieb, _ als dich al-|
w: reich,||denn die stirbt nie bei|mir,|denn die stirbt nie bei|mir, _ das glau- be|
 e3 z2 z |[Q:1/4=88]"^rallent." z!p! c !>!B2 A2 | !fermata!G3 |] %24
w: lein,|als dich al-|lein.|
w: mir,|das glau- be|mir!|
V:2
!p! EF G | !>!G>G!<(! GG ^B!<)!B |!>(! ^B>!>)!c c!<(!c cc!<)! |!>(! (B2 e2)!>)! d2 | B4 z2 | %5
w: |||las- * sen|kann,|
w: |||giss- * nicht-|mein;|
 z2 z!<(! B ^A!<)!A |!>(! B>F F2!>)! z2 | z2 z!<(! B ^A!<)!A |!>(! =A3!>)!!p! c BA | %9
w: hab' dich von|Her- zen lieb,|das glau- be|mir. Du hast das|
w: dies Blüm- lein|leg ans Herz|und denk an|mich! Stirbt Blum' und|
!<(! =G4!<)! A2 | B4 |!f! =d2 | e3 e e=c |!>(! (A2 =G2)!>)! A2 | =G>!<(!B =c2!<)! e2 | %15
w: Her- ze|mein|||||
w: Hoff- nung|gleich,|||||
!>(! !fermata!d3!>)! |!p! de c |!<(! B4!<)!!>(! B2!>)! | B3"^cresc." B ec | B4 d2 | %20
w: |dass ich kein|and'- re|lieb, dass ich kein|and'- re|
w: |denn die stirbt|nie bei|mir, denn die stirbt|nie bei|
 (d2 c)!f!A G=d | c3 z2 z | z!p! A !>!G2 F2 | !fermata!E3 |] %24
w: lieb, _ als dich al-|lein,|als dich al-|lein.|
w: mir, _ das glau- be|mir,|das glau- be|mir!|
V:3
!p! E,E, E, | !>!E,>E,!<(! E,G, G,!<)!G, |!>(! D,>!>)!E, E,!<(!E, E,E,!<)! | %3
w: 1.~Wie ist es|mög- lich dann, dass ich dich|las- sen kann, dass ich dich|
w: 2.~Blau ist ein|Blü- me- lein, das heißt Ver-|giß- nicht- mein; das heißt Ver-|
!>(! (E,2 B,2)!>)! A,2 |!<(! G,3 G, G,!<)!B, |!>(! (B,2 F,2)!>)! E,2 | D,3!<(! F, B,G,!<)! | %7
w: las- * sen|kann, hab' dich von|Her- * zen|lieb, das glau- be,|
w: giss- * nicht-|mein; dies Blüm- lein|leg _ ans|Herz und denk, und|
 F,4 E,2 |!>(! D,4!>)! z2 | z2 z2 F,2 |!<(! =G,>G, G,2!<)! |!f! B,2 | =C3 E, =G,A, | %13
w: glau- be|mir.|Du|hast mein Herz|so|ganz ge- nom- men|
w: denk an|mich!|Stirbt|Blu- me gleich,|sind|wir an Lie- be|
!>(! (F,2 =G,2)!>)! F,2 | =G,>!<(!G, G,2!<)! A,^A, |!>(! !fermata!B,3!>)! |!p! B,C A, | %17
w: ein, _ so|ganz ge- nom- men _|ein,||
w: reich, _ sind|wir an Lie- be *|reich,||
!<(! G,4!<)!!>(! F,2!>)! | (E,2"^cresc." G,)E, CA, | G,4 G,2 | (A,2 G,)!f!E, =DG, | %21
w: |||lieb, _ als dich al-|
w: |||mir, _ das glau- be|
"^dim." A,3 C A,F, | D,4!p! D,D, | !fermata!E,3 |] %24
w: lein, als dich al-|lein, dich al-|lein,|
w: mir, das glau- be|mir, glau- be|mir,|
V:4
!p! E,E, E, | !>!E,>E,!<(! E,E, D,!<)!G,, |!>(! A,,>!>)!A,, A,,!<(!A,, A,,^A,,!<)! | %3
w: |||
w: |||
!>(! B,,4!>)! B,,2 |!<(! E,3 E, E,!<)!G, |!>(! (G,2 D,2)!>)! C,2 | B,,3!<(! D, G,E,!<)! | D,4 C,2 | %8
w: ||||glau- be|
w: ||||denk an|
!>(! B,,4!>)!!p! D,2 | E,>E, E,2 =D,2 |!<(! =G,,4!<)! |!f! =G,2 | =C,3 C, C,C, | %13
w: mir. Du|hast das Her- ze|mein|||
w: mich! Stirbt|Blum' und Hoff- nung|gleich,|||
!>(! (=C,2 B,,2)!>)! =D,2 | E,>!<(!=D, =C,2!<)! C,2 |!>(! !fermata!B,,3!>)! | z3 | %17
w: ||||
w: ||||
 z2 z!p! B,, B,,A,, | G,,B,,"^cresc." E,G,, A,,A,, | B,,4 ^B,,2 | C,3!f! C, B,,E, | A,,3 z2 z | %22
w: dass ich kein|and'- re lieb, dass ich kein|and'- re|lieb, als dich al-|lein,|
w: denn die stirbt|nie bei mir, denn die stirbt|nie bei|mir, das glau- be|mir,|
 z2 z!p! B,, B,,B,, | !fermata!E,,3 |] %24
w: als dich al-|lein,|
w: das glau- be|mir,|

